X: 18248
T: Humours Of Lissadell, The
R: reel
M: 4/4
K: Edorian
|:eB B2 eBdB|AF F2 edBA|BE E2 BEGB|FB B2 FBdf|
eB B2 eBdB|AF F2 edBA|BEED EFGA|(3Bcd ef e3f:|
|:eB B2 A2FA|defd edef|df f2 dfbf|afdf e3f|
defd BcdB|AF F2 ABde|fddc dfbf|afdf e3f:|

